app/assets/images/visual-editor/icons/align-float-right.svg

<?xml version="1.0" encoding="utf-8"?>
<svg xmlns="http://www.w3.org/2000/svg" width="24" height="24" viewBox="0 0 24 24">
    <g id="align-float-right" opacity=".75">
        <path d="M20 9h-6c-.554 0-1 .446-1 1v5c0 .554.446 1 1 1h6c.554 0 1-.446 1-1v-5c0-.554-.446-1-1-1zM10.5 9h-7c-.277 0-.5.223-.5.5s.223.5.5.5h7c.277 0 .5-.223.5-.5s-.223-.5-.5-.5zM10.5 12h-7c-.277 0-.5.223-.5.5s.223.5.5.5h7c.277 0 .5-.223.5-.5s-.223-.5-.5-.5zM10.5 15h-7c-.277 0-.5.223-.5.5s.223.5.5.5h7c.277 0 .5-.223.5-.5s-.223-.5-.5-.5zM20.5 6h-17c-.277 0-.5.223-.5.5s.223.5.5.5h17c.277 0 .5-.223.5-.5s-.223-.5-.5-.5zM20.5 18h-17c-.277 0-.5.223-.5.5s.223.5.5.5h17c.277 0 .5-.223.5-.5s-.223-.5-.5-.5z"/>
    </g>
</svg>

<?xml version="1.0" encoding="UTF-8"?>
<!DOCTYPE svg PUBLIC "-//W3C//DTD SVG 1.1//EN" "http://www.w3.org/Graphics/SVG/1.1/DTD/svg11.dtd">
<svg version="1.1" xmlns="http://www.w3.org/2000/svg" xmlns:xlink="http://www.w3.org/1999/xlink" x="0px" y="0px" width="24" height="24" viewBox="0, 0, 24, 24">
  <g id="Background">
    <rect x="0" y="0" width="24" height="24" fill="#000000" fill-opacity="0"/>
  </g>
  <g id="align-float-right" opacity="0.75">
    <path d="M20,9 L14,9 C13.446,9 13,9.446 13,10 L13,15 C13,15.554 13.446,16 14,16 L20,16 C20.554,16 21,15.554 21,15 L21,10 C21,9.446 20.554,9 20,9 z" fill="#000000"/>
    <path d="M10.5,9 L3.5,9 C3.223,9 3,9.223 3,9.5 C3,9.777 3.223,10 3.5,10 L10.5,10 C10.777,10 11,9.777 11,9.5 C11,9.223 10.777,9 10.5,9 z" fill="#000000"/>
    <path d="M10.5,12 L3.5,12 C3.223,12 3,12.223 3,12.5 C3,12.777 3.223,13 3.5,13 L10.5,13 C10.777,13 11,12.777 11,12.5 C11,12.223 10.777,12 10.5,12 z" fill="#000000"/>
    <path d="M10.5,15 L3.5,15 C3.223,15 3,15.223 3,15.5 C3,15.777 3.223,16 3.5,16 L10.5,16 C10.777,16 11,15.777 11,15.5 C11,15.223 10.777,15 10.5,15 z" fill="#000000"/>
    <path d="M20.5,6 L3.5,6 C3.223,6 3,6.223 3,6.5 C3,6.777 3.223,7 3.5,7 L20.5,7 C20.777,7 21,6.777 21,6.5 C21,6.223 20.777,6 20.5,6 z" fill="#000000"/>
    <path d="M20.5,18 L3.5,18 C3.223,18 3,18.223 3,18.5 C3,18.777 3.223,19 3.5,19 L20.5,19 C20.777,19 21,18.777 21,18.5 C21,18.223 20.777,18 20.5,18 z" fill="#000000"/>
  </g>
  <defs/>
</svg>
